X:3
T:O'Donovan's Jig
C:PM J. McCormack
P:5
M:6/8
Q:120
K:D
z5:|A|"D"{Gdgc}d3 "D"{g}f e d|
"G"{g}B d {c}d "D"{g}A d {c}d |
"D"{gdC}d3 "D"{g}f e d|
"A" {g}c e {A}e "A7"{g}e2 A|
"D"{Gdgc}d3 "D"{g}f e d|
"G"{g}B d {c}d "D"{g}A d {c}d |
"G"{G}B d {c}d "A"{g}c e {A}e |
"D"{g}f d {c}d "D"{gdc}d2:|
:|e|"D"{g}f3 "D"g f g|
"D"a f {e}f "A7"{g}fed|
"D"{f}f3 "D"g f g|
"A"a f {e}f "A7"{g}f2 A|
"D"{g}f3 "D"g f g |
"A"a f {e}f "A7"{g}f e d|
"G"{g}Bd {c}d "A"{g}c e {A}e|
"D"{g}f d {c}d "D"{gdc}d2:|
